example/example.cube
# Converted by Briz LUT Converter
LUT_3D_SIZE 5
DOMAIN_MIN 0.000000 0.000000 0.000000
DOMAIN_MAX 0.903226 0.903226 0.903226
0.036732 0.024376 0.015563
0.307160 0.010495 0.002409
0.567085 -0.001505 -0.008810
0.821256 -0.013246 -0.019793
1.071604 -0.024809 -0.030606
0.162155 0.203956 0.118326
0.278542 0.243235 -0.014997
0.537130 0.230119 -0.028800
0.794915 0.217533 -0.041389
1.046654 0.205798 -0.052519
0.232645 0.335677 0.171888
0.302273 0.427887 0.058537
0.504963 0.460769 -0.047501
0.759204 0.449199 -0.060698
1.008941 0.437600 -0.072260
0.303259 0.467638 0.225544
0.417168 0.517202 0.223631
0.484637 0.681289 -0.051777
0.724791 0.678590 -0.079931
0.979280 0.668157 -0.093290
0.373933 0.599712 0.279246
0.505209 0.630735 0.307838
0.539522 0.797040 0.108327
0.699617 0.907683 -0.101534
0.941512 0.896660 -0.112598
0.057104 0.048858 0.236591
0.291882 0.061404 0.190004
0.509689 0.037894 0.216333
0.793529 -0.006700 0.207949
1.063538 -0.027774 0.193245
0.068651 0.247023 0.234505
0.286814 0.240101 0.214287
0.537392 0.224753 0.192459
0.791620 0.213011 0.181464
1.041983 0.201453 0.170633
0.216995 0.362226 0.247884
0.373660 0.379986 0.271449
0.501719 0.456492 0.177420
0.758150 0.444735 0.162570
1.014769 0.432959 0.149155
0.316284 0.478374 0.300079
0.447515 0.509318 0.328632
0.514517 0.630346 0.228041
0.721307 0.674459 0.145553
0.975422 0.663929 0.131136
0.386942 0.610419 0.353758
0.518245 0.641485 0.382364
0.620988 0.701424 0.373337
0.699455 0.893373 0.138802
0.937656 0.892568 0.113098
0.057043 0.048802 0.439658
0.277058 0.053044 0.415611
0.508847 0.073694 0.348847
0.713589 0.079523 0.362538
0.918804 0.053175 0.406280
0.056730 0.251643 0.439366
0.270005 0.251509 0.439218
0.527559 0.262558 0.365587
0.724318 0.246288 0.409068
1.004189 0.208009 0.410321
0.057168 0.454847 0.438760
0.280932 0.448280 0.434026
0.507780 0.448672 0.404579
0.761627 0.439921 0.393092
1.012013 0.428404 0.382276
0.187261 0.577625 0.411486
0.431182 0.541643 0.413306
0.585562 0.551698 0.433116
0.718688 0.670175 0.380851
0.975008 0.659650 0.364710
0.327689 0.672541 0.434565
0.531873 0.652700 0.460383
0.657455 0.682321 0.487718
0.729421 0.822890 0.420989
0.933881 0.888281 0.349267
0.056987 0.048751 0.647529
0.270259 0.048606 0.647432
0.503890 0.070507 0.538350
0.721255 0.085869 0.511106
0.926438 0.094443 0.518546
0.056671 0.251604 0.647290
0.269959 0.251456 0.647113
0.488124 0.255185 0.616533
0.741690 0.274980 0.526129
0.942295 0.281699 0.539761
0.056358 0.455168 0.647008
0.269660 0.455038 0.646837
0.473774 0.454937 0.646668
0.762147 0.464772 0.541174
0.937349 0.453400 0.605095
0.056039 0.659180 0.646685
0.269463 0.658970 0.646465
0.480446 0.653326 0.640921
0.722905 0.654643 0.610428
0.981753 0.655622 0.599420
0.146726 0.804714 0.613960
0.402014 0.767047 0.597438
0.641981 0.718232 0.581567
0.793129 0.725325 0.594386
0.931055 0.883971 0.590374
0.056925 0.048695 0.858807
0.270184 0.048548 0.858697
0.477188 0.050615 0.845533
0.721902 0.086626 0.681536
0.930537 0.097959 0.675702
0.056608 0.251538 0.858480
0.269897 0.251393 0.858298
0.474017 0.251249 0.858190
0.723214 0.270134 0.738665
0.950968 0.287078 0.690691
0.056293 0.455163 0.858165
0.269607 0.454976 0.858054
0.473718 0.454855 0.857829
0.688855 0.457223 0.831864
0.971539 0.476879 0.705821
0.055979 0.659120 0.857839
0.269322 0.658982 0.857731
0.473422 0.658857 0.857622
0.673047 0.658706 0.857449
0.990792 0.666999 0.722135
0.055667 0.863422 0.857640
0.269029 0.863246 0.857458
0.473136 0.863052 0.857267
0.685341 0.850604 0.843552
0.935194 0.858895 0.808075
