example/example.cube
# Converted by Briz LUT Converter
LUT_3D_SIZE 32
0.036732 0.024376 0.015563
0.076085 0.021882 0.013149
0.115437 0.019388 0.010736
0.154271 0.017549 0.009012
0.193068 0.015757 0.007337
0.231279 0.013994 0.005686
0.269399 0.012235 0.004038
0.307160 0.010495 0.002409
0.344832 0.008760 0.000785
0.382234 0.007032 -0.000830
0.419538 0.005306 -0.002442
0.456592 0.003596 -0.004040
0.493523 0.001894 -0.005632
0.530341 0.000194 -0.007221
0.567085 -0.001505 -0.008810
0.603686 -0.003197 -0.010392
0.640163 -0.004882 -0.011969
0.676554 -0.006562 -0.013541
0.712845 -0.008236 -0.015106
0.749068 -0.009908 -0.016670
0.785188 -0.011579 -0.018234
0.821256 -0.013246 -0.019793
0.857219 -0.014903 -0.021342
0.893136 -0.016560 -0.022892
0.928924 -0.018216 -0.024440
0.964685 -0.019871 -0.025986
1.000345 -0.021520 -0.027528
1.035998 -0.023168 -0.029070
1.071604 -0.024809 -0.030606
1.107198 -0.026450 -0.032141
1.142616 -0.028090 -0.033673
1.178033 -0.029729 -0.035205
0.073453 0.066477 0.047075
0.093545 0.060195 0.028742
0.113637 0.053912 0.010408
0.150864 0.051517 0.007234
0.189314 0.049400 0.005143
0.227580 0.047286 0.003070
0.265818 0.045172 0.001000
0.303597 0.043361 -0.000713
0.341261 0.041625 -0.002336
0.378655 0.039900 -0.003951
0.415952 0.038179 -0.005563
0.453012 0.036466 -0.007163
0.489955 0.034756 -0.008757
0.526772 0.033056 -0.010346
0.563506 0.031361 -0.011933
0.600109 0.029671 -0.013515
0.636599 0.027986 -0.015093
0.672994 0.026307 -0.016665
0.709283 0.024633 -0.018229
0.745503 0.022959 -0.019793
0.781623 0.021286 -0.021355
0.817688 0.019618 -0.022914
0.853641 0.017960 -0.024467
0.889560 0.016303 -0.026017
0.925381 0.014649 -0.027564
0.961164 0.012996 -0.029110
0.996788 0.011346 -0.030650
1.032409 0.009697 -0.032190
1.068017 0.008055 -0.033726
1.103612 0.006413 -0.035262
1.139029 0.004779 -0.036795
1.174445 0.003145 -0.038328
0.110174 0.108579 0.078587
0.111006 0.098508 0.044334
0.111838 0.088437 0.010081
0.147456 0.085485 0.005457
0.185560 0.083042 0.002949
0.223882 0.080578 0.000454
0.262238 0.078110 -0.002039
0.300034 0.076227 -0.003835
0.337690 0.074490 -0.005457
0.375077 0.072768 -0.007072
0.412366 0.071052 -0.008684
0.449432 0.069335 -0.010286
0.486388 0.067618 -0.011883
0.523203 0.065917 -0.013472
0.559926 0.064226 -0.015055
0.596532 0.062539 -0.016637
0.633034 0.060855 -0.018217
0.669435 0.059176 -0.019790
0.705720 0.057501 -0.021353
0.741939 0.055826 -0.022916
0.778059 0.054151 -0.024477
0.814120 0.052482 -0.026036
0.850063 0.050823 -0.027591
0.885983 0.049166 -0.029143
0.921839 0.047515 -0.030689
0.957642 0.045863 -0.032233
0.993230 0.044212 -0.033772
1.028821 0.042562 -0.035310
1.064430 0.040919 -0.036846
1.100026 0.039276 -0.038382
1.135442 0.037647 -0.039916
1.170857 0.036018 -0.041450
0.121987 0.128884 0.087803
0.118202 0.125185 0.051989
0.114418 0.121485 0.016174
0.147008 0.119006 0.007835
0.182197 0.116614 0.001458
0.219800 0.114269 -0.001474
0.257775 0.111932 -0.003875
0.295437 0.109962 -0.005823
0.333021 0.108083 -0.007658
0.370561 0.106192 -0.009520
0.408086 0.104296 -0.011390
0.445441 0.102440 -0.013188
0.482710 0.100604 -0.014949
0.519639 0.098854 -0.016602
0.556340 0.097162 -0.018184
0.592941 0.095476 -0.019765
0.629456 0.093795 -0.021346
0.665860 0.092116 -0.022919
0.702138 0.090438 -0.024485
0.738355 0.088762 -0.026047
0.774482 0.087087 -0.027607
0.810552 0.085418 -0.029165
0.846507 0.083763 -0.030720
0.882431 0.082108 -0.032273
0.918266 0.080455 -0.033818
0.954060 0.078803 -0.035362
0.989689 0.077150 -0.036903
1.025309 0.075500 -0.038444
1.060875 0.073862 -0.039980
1.096431 0.072225 -0.041515
1.131852 0.070590 -0.043046
1.167274 0.068955 -0.044576
0.132020 0.147633 0.095426
0.124665 0.151030 0.059077
0.117311 0.154428 0.022727
0.146771 0.152495 0.010509
0.178861 0.150181 0.000016
0.215690 0.147990 -0.003353
0.253249 0.145817 -0.005625
0.290766 0.143758 -0.007730
0.328273 0.141728 -0.009794
0.365979 0.139655 -0.011919
0.403757 0.137568 -0.014067
0.441420 0.135562 -0.016074
0.479025 0.133598 -0.018011
0.516074 0.131796 -0.019734
0.552753 0.130102 -0.021314
0.589350 0.128417 -0.022894
0.625877 0.126740 -0.024475
0.662284 0.125061 -0.026049
0.698555 0.123381 -0.027617
0.734771 0.121702 -0.029180
0.770904 0.120028 -0.030736
0.806984 0.118360 -0.032293
0.842953 0.116709 -0.033850
0.878881 0.115056 -0.035403
0.914691 0.113402 -0.036948
0.950474 0.111747 -0.038492
0.986149 0.110094 -0.040036
1.021803 0.108443 -0.041578
1.057322 0.106811 -0.043114
1.092835 0.105179 -0.044650
1.128263 0.103538 -0.046176
1.163690 0.101896 -0.047703
0.142058 0.166395 0.103055
0.140999 0.172178 0.077707
0.139940 0.177960 0.052359
0.157802 0.180461 0.026129
0.177014 0.182728 -0.000165
0.211904 0.181199 -0.005631
0.249206 0.179087 -0.007893
0.286643 0.177004 -0.010124
0.324113 0.174927 -0.012346
0.361496 0.172934 -0.014390
0.398848 0.170972 -0.016368
0.436225 0.169020 -0.018330
0.473615 0.167073 -0.020284
0.510727 0.165228 -0.022111
0.547654 0.163451 -0.023853
0.584585 0.161668 -0.025599
0.621521 0.159880 -0.027347
0.658278 0.158117 -0.029050
0.694832 0.156384 -0.030700
0.731209 0.154678 -0.032313
0.767321 0.153014 -0.033870
0.803387 0.151352 -0.035427
0.839360 0.149691 -0.036983
0.875288 0.148035 -0.038537
0.911094 0.146388 -0.040083
0.946875 0.144739 -0.041629
0.982555 0.143083 -0.043170
1.018220 0.141428 -0.044710
1.053783 0.139790 -0.046249
1.089333 0.138151 -0.047786
1.124712 0.136521 -0.049312
1.160091 0.134890 -0.050838
0.152098 0.185160 0.110684
0.158852 0.192602 0.098113
0.165606 0.200044 0.085542
0.170565 0.207578 0.043739
0.175396 0.215118 -0.000152
0.208168 0.214330 -0.007971
0.245238 0.212262 -0.010242
0.282604 0.210164 -0.012592
0.320042 0.208058 -0.014962
0.357028 0.206185 -0.016871
0.393848 0.204397 -0.018613
0.430849 0.202529 -0.020490
0.467939 0.200621 -0.022436
0.505106 0.198735 -0.024372
0.542323 0.196862 -0.026302
0.579640 0.194967 -0.028238
0.617045 0.193050 -0.030180
0.654206 0.191191 -0.032030
0.691088 0.189396 -0.033776
0.727651 0.187659 -0.035446
0.763736 0.186008 -0.037004
0.799785 0.184351 -0.038561
0.835760 0.182680 -0.040118
0.871690 0.181018 -0.041672
0.907494 0.179380 -0.043220
0.943274 0.177738 -0.044767
0.978954 0.176079 -0.046304
1.014626 0.174421 -0.047841
1.050246 0.172772 -0.049383
1.085845 0.171126 -0.050924
1.121167 0.169510 -0.052449
1.156489 0.167893 -0.053974
0.162155 0.203956 0.118326
0.174715 0.210481 0.113813
0.187274 0.217007 0.109299
0.185764 0.229226 0.064348
0.183249 0.241851 0.016507
0.210549 0.244090 0.000363
0.242435 0.244730 -0.010905
0.278542 0.243235 -0.014997
0.315704 0.241207 -0.017297
0.352747 0.239302 -0.019365
0.389745 0.237443 -0.021350
0.426577 0.235606 -0.023232
0.463325 0.233782 -0.025063
0.500189 0.231952 -0.026922
0.537130 0.230119 -0.028800
0.574200 0.228259 -0.030704
0.611383 0.226374 -0.032629
0.648434 0.224528 -0.034495
0.685335 0.222724 -0.036292
0.722049 0.220958 -0.038040
0.758481 0.219248 -0.039714
0.794915 0.217533 -0.041389
0.831351 0.215807 -0.043065
0.867679 0.214096 -0.044720
0.903710 0.212425 -0.046318
0.939672 0.210757 -0.047904
0.975351 0.209102 -0.049441
1.011024 0.207447 -0.050979
1.046654 0.205798 -0.052519
1.082264 0.204151 -0.054059
1.117575 0.202529 -0.055585
1.152887 0.200906 -0.057112
0.172217 0.222759 0.125972
0.190080 0.227724 0.128336
0.207943 0.232690 0.130700
0.201572 0.249507 0.085705
0.193469 0.267171 0.037328
0.214458 0.273006 0.011367
0.239923 0.277021 -0.011146
0.274475 0.276285 -0.017388
0.311300 0.274360 -0.019561
0.348512 0.272386 -0.021863
0.385865 0.270394 -0.024211
0.422581 0.268576 -0.026120
0.458977 0.266845 -0.027809
0.495449 0.265097 -0.029544
0.531971 0.263337 -0.031311
0.568635 0.261549 -0.033126
0.605423 0.259736 -0.034983
0.642237 0.257930 -0.036831
0.679081 0.256131 -0.038669
0.715936 0.254337 -0.040499
0.752808 0.252550 -0.042318
0.789727 0.250761 -0.044140
0.826739 0.248968 -0.045965
0.863565 0.247197 -0.047746
0.899881 0.245483 -0.049405
0.936069 0.243782 -0.051040
0.971747 0.242132 -0.052579
1.007419 0.240482 -0.054117
1.043050 0.238835 -0.055656
1.078659 0.237190 -0.057194
1.113972 0.235556 -0.058723
1.149284 0.233922 -0.060251
0.182276 0.241557 0.133616
0.201555 0.246111 0.137815
0.220835 0.250665 0.142014
0.216260 0.267915 0.104380
0.209982 0.286071 0.063758
0.223380 0.297222 0.027741
0.239806 0.307296 -0.007569
0.271709 0.308331 -0.017732
0.307483 0.307105 -0.021609
0.344221 0.305354 -0.024329
0.381310 0.303413 -0.026628
0.418140 0.301582 -0.028673
0.454841 0.299806 -0.030591
0.491353 0.298061 -0.032410
0.527740 0.296335 -0.034161
0.564114 0.294598 -0.035909
0.600479 0.292851 -0.037653
0.636965 0.291092 -0.039430
0.673589 0.289319 -0.041242
0.710270 0.287544 -0.043061
0.747036 0.285766 -0.044889
0.783849 0.283987 -0.046719
0.820758 0.282207 -0.048552
0.857542 0.280439 -0.050352
0.893981 0.278707 -0.052063
0.930346 0.276987 -0.053756
0.966415 0.275315 -0.055386
1.002490 0.273640 -0.057015
1.038594 0.271957 -0.058644
1.074662 0.270276 -0.060269
1.110221 0.268625 -0.061832
1.145779 0.266973 -0.063395
0.192335 0.260353 0.141259
0.211616 0.264914 0.145460
0.230898 0.269474 0.149660
0.230542 0.285641 0.122079
0.228784 0.302636 0.092228
0.234126 0.319730 0.046067
0.240560 0.336838 -0.002603
0.269417 0.340011 -0.017333
0.303879 0.339701 -0.023579
0.339909 0.338280 -0.026784
0.376509 0.336456 -0.028883
0.413539 0.334601 -0.031105
0.450783 0.332730 -0.033388
0.487493 0.330958 -0.035363
0.523845 0.329252 -0.037135
0.559973 0.327558 -0.038823
0.595905 0.325876 -0.040438
0.632029 0.324167 -0.042123
0.668375 0.322428 -0.043887
0.704766 0.320690 -0.045660
0.741226 0.318952 -0.047448
0.777720 0.317214 -0.049237
0.814279 0.315473 -0.051026
0.850824 0.313733 -0.052807
0.887328 0.311993 -0.054564
0.923852 0.310260 -0.056320
0.960455 0.308553 -0.058072
0.997078 0.306843 -0.059825
1.033829 0.305110 -0.061578
1.070523 0.303381 -0.063321
1.106416 0.301709 -0.064932
1.142309 0.300037 -0.066542
0.202405 0.279170 0.148910
0.221685 0.283726 0.153109
0.240965 0.288283 0.157308
0.244921 0.302436 0.138163
0.247783 0.317275 0.117350
0.249028 0.337506 0.070155
0.250025 0.358566 0.018901
0.273166 0.366482 -0.005614
0.301843 0.371113 -0.023445
0.336058 0.371063 -0.029588
0.372286 0.369312 -0.031482
0.409049 0.367501 -0.033616
0.446080 0.365658 -0.035869
0.482900 0.363889 -0.037951
0.519579 0.362167 -0.039918
0.555909 0.360467 -0.041728
0.591933 0.358787 -0.043402
0.627960 0.357101 -0.045083
0.663991 0.355408 -0.046773
0.700049 0.353711 -0.048472
0.736147 0.352007 -0.050186
0.772311 0.350300 -0.051914
0.808608 0.348587 -0.053673
0.844923 0.346870 -0.055430
0.881287 0.345146 -0.057184
0.917696 0.343425 -0.058943
0.954290 0.341715 -0.060715
0.990905 0.340005 -0.062488
1.027651 0.338286 -0.064263
1.064355 0.336570 -0.066029
1.100484 0.334892 -0.067689
1.136613 0.333215 -0.069348
0.212480 0.297997 0.156565
0.231756 0.302544 0.160761
0.251033 0.307091 0.164956
0.259348 0.318766 0.153438
0.266880 0.330951 0.140797
0.266009 0.352916 0.097123
0.263845 0.376387 0.048674
0.279936 0.390348 0.011765
0.300590 0.401932 -0.022259
0.332436 0.403775 -0.032567
0.368353 0.402075 -0.034252
0.404616 0.400341 -0.036166
0.441054 0.398589 -0.038194
0.477940 0.396835 -0.040356
0.515126 0.395081 -0.042606
0.551882 0.393351 -0.044630
0.588262 0.391642 -0.046455
0.624324 0.389965 -0.048176
0.660024 0.388324 -0.049779
0.695726 0.386671 -0.051389
0.731432 0.384997 -0.053013
0.767263 0.383317 -0.054672
0.803342 0.381624 -0.056406
0.839431 0.379930 -0.058137
0.875550 0.378233 -0.059865
0.911709 0.376537 -0.061596
0.948024 0.374839 -0.063336
0.984352 0.373145 -0.065078
1.020766 0.371474 -0.066823
1.057173 0.369802 -0.068565
1.093489 0.368125 -0.070275
1.129805 0.366449 -0.071984
0.222560 0.316834 0.164225
0.241835 0.321377 0.168419
0.261110 0.325920 0.172612
0.273700 0.334787 0.167790
0.285814 0.343963 0.162323
0.283740 0.366863 0.122269
0.279483 0.391875 0.076893
0.290005 0.410392 0.033650
0.304221 0.427285 -0.009061
0.332380 0.432658 -0.026597
0.365610 0.433842 -0.034978
0.400678 0.433102 -0.038996
0.436667 0.431400 -0.040833
0.473239 0.429678 -0.042898
0.510202 0.427942 -0.045114
0.547066 0.426222 -0.047223
0.583843 0.424517 -0.049238
0.620187 0.422844 -0.051091
0.656035 0.421209 -0.052758
0.691772 0.419571 -0.054399
0.727343 0.417929 -0.055998
0.762979 0.416277 -0.057622
0.798743 0.414604 -0.059294
0.834534 0.412930 -0.060971
0.870400 0.411255 -0.062659
0.906306 0.409579 -0.064353
0.942371 0.407899 -0.066066
0.978448 0.406222 -0.067781
1.014610 0.404568 -0.069502
1.050778 0.402913 -0.071222
1.087032 0.401243 -0.072939
1.123285 0.399573 -0.074656
0.232645 0.335677 0.171888
0.251918 0.340220 0.176081
0.271191 0.344762 0.180274
0.288002 0.350602 0.181526
0.304637 0.356534 0.182567
0.301970 0.379834 0.146199
0.296333 0.405807 0.104076
0.302273 0.427887 0.058537
0.311107 0.448993 0.012144
0.334700 0.458988 -0.014660
0.363661 0.464944 -0.034341
0.397071 0.465811 -0.042013
0.432705 0.464133 -0.043682
0.468710 0.462452 -0.045531
0.504963 0.460769 -0.047501
0.541723 0.459086 -0.049610
0.578925 0.457405 -0.051839
0.615715 0.455733 -0.053885
0.652032 0.454073 -0.055721
0.688065 0.452433 -0.057470
0.723671 0.450823 -0.059089
0.759204 0.449199 -0.060698
0.794589 0.447545 -0.062287
0.830034 0.445890 -0.063889
0.865641 0.444233 -0.065529
0.901294 0.442575 -0.067179
0.937128 0.440915 -0.068869
0.972978 0.439256 -0.070561
1.008941 0.437600 -0.072260
1.044908 0.435944 -0.073960
1.080932 0.434284 -0.075656
1.116956 0.432624 -0.077352
0.242727 0.354518 0.179549
0.262002 0.359062 0.183743
0.281277 0.363606 0.187937
0.300059 0.368034 0.192024
0.318806 0.372454 0.196103
0.317594 0.394483 0.165253
0.313313 0.419222 0.129029
0.316310 0.443380 0.083853
0.321127 0.467392 0.036440
0.339657 0.482407 0.001006
0.363172 0.494150 -0.030072
0.394313 0.497457 -0.042652
0.429267 0.496544 -0.045984
0.464692 0.495187 -0.048387
0.500430 0.493533 -0.050171
0.536816 0.491878 -0.052170
0.573768 0.490223 -0.054358
0.610632 0.488573 -0.056465
0.647396 0.486929 -0.058480
0.683790 0.485304 -0.060371
0.719632 0.483707 -0.062073
0.755319 0.482095 -0.063738
0.790696 0.480455 -0.065328
0.826078 0.478814 -0.066920
0.861472 0.477168 -0.068519
0.896894 0.475522 -0.070126
0.932426 0.473879 -0.071769
0.967983 0.472235 -0.073416
1.003702 0.470590 -0.075089
1.039429 0.468945 -0.076762
1.075263 0.467300 -0.078442
1.111097 0.465655 -0.080123
0.252807 0.373357 0.187208
0.272087 0.377904 0.191404
0.291368 0.382450 0.195600
0.310152 0.386881 0.199689
0.328900 0.391304 0.203769
0.330938 0.410600 0.180039
0.330406 0.432185 0.152031
0.331895 0.457122 0.109545
0.333890 0.482896 0.063440
0.346919 0.503278 0.019934
0.363960 0.521698 -0.022626
0.392299 0.528173 -0.041211
0.426288 0.528674 -0.047808
0.461120 0.527888 -0.051437
0.496514 0.526242 -0.053088
0.532290 0.524607 -0.054883
0.568400 0.522980 -0.056804
0.605014 0.521370 -0.058857
0.642204 0.519780 -0.061063
0.679019 0.518184 -0.063123
0.715271 0.516581 -0.064964
0.751338 0.514969 -0.066746
0.787032 0.513339 -0.068411
0.822600 0.511706 -0.070050
0.857819 0.510066 -0.071614
0.893028 0.508427 -0.073180
0.928198 0.506797 -0.074754
0.963404 0.505168 -0.076337
0.998839 0.503544 -0.077979
1.034291 0.501921 -0.079622
1.069969 0.500295 -0.081291
1.105647 0.498668 -0.082959
0.262892 0.392205 0.194871
0.282175 0.396753 0.199069
0.301458 0.401302 0.203266
0.320241 0.405733 0.207354
0.338989 0.410155 0.211434
0.344497 0.426426 0.194530
0.347968 0.444518 0.174396
0.348371 0.469882 0.134705
0.348007 0.497064 0.090124
0.356815 0.521074 0.042792
0.368957 0.543931 -0.005541
0.393486 0.554783 -0.031952
0.424209 0.559634 -0.047400
0.457633 0.560592 -0.054527
0.492858 0.558955 -0.056107
0.528237 0.557329 -0.057768
0.563751 0.555713 -0.059499
0.599936 0.554118 -0.061435
0.636886 0.552547 -0.063607
0.673729 0.550975 -0.065709
0.710409 0.549401 -0.067706
0.746864 0.547815 -0.069621
0.782867 0.546207 -0.071374
0.818690 0.544593 -0.073085
0.854023 0.542967 -0.074680
0.889288 0.541342 -0.076265
0.924286 0.539720 -0.077808
0.959309 0.538099 -0.079358
0.994494 0.536485 -0.080962
1.029693 0.534872 -0.082568
1.065077 0.533256 -0.084200
1.100460 0.531639 -0.085831
0.272983 0.411062 0.202539
0.292266 0.415611 0.206736
0.311548 0.420161 0.210933
0.330327 0.424589 0.215020
0.349070 0.429007 0.219099
0.358300 0.441917 0.208682
0.366066 0.456133 0.196035
0.365865 0.481522 0.159257
0.363673 0.509705 0.116446
0.369720 0.535357 0.070139
0.378764 0.560088 0.022560
0.398331 0.576702 -0.013757
0.423159 0.589256 -0.044443
0.454243 0.593300 -0.057664
0.489497 0.591671 -0.059244
0.524723 0.590044 -0.060849
0.559923 0.588418 -0.062479
0.595474 0.586809 -0.064226
0.631424 0.585218 -0.066107
0.667846 0.583662 -0.068105
0.704975 0.582158 -0.070278
0.741827 0.580630 -0.072345
0.778128 0.579056 -0.074199
0.814288 0.577475 -0.076012
0.850062 0.575874 -0.077714
0.885691 0.574269 -0.079386
0.920734 0.572648 -0.080940
0.955768 0.571028 -0.082494
0.990742 0.569412 -0.084052
1.025713 0.567797 -0.085610
1.060643 0.566179 -0.087178
1.095574 0.564561 -0.088745
0.283075 0.429920 0.210207
0.302357 0.434471 0.214404
0.321639 0.439021 0.218601
0.340417 0.443448 0.222688
0.359159 0.447866 0.226767
0.371978 0.457494 0.222283
0.383885 0.467924 0.216483
0.383445 0.493019 0.182760
0.379920 0.521781 0.142056
0.383568 0.548783 0.096984
0.389826 0.575145 0.050324
0.405131 0.596181 0.007578
0.424960 0.614553 -0.033210
0.453123 0.622401 -0.053470
0.486843 0.623234 -0.060045
0.521254 0.622752 -0.063951
0.556270 0.621120 -0.065519
0.591397 0.619503 -0.067140
0.626651 0.617903 -0.068820
0.662578 0.616348 -0.070690
0.699516 0.614862 -0.072845
0.736361 0.613365 -0.074942
0.773018 0.611847 -0.076922
0.809535 0.610315 -0.078853
0.845663 0.608742 -0.080647
0.881615 0.607162 -0.082403
0.916863 0.605556 -0.084004
0.952069 0.603950 -0.085598
0.987009 0.602337 -0.087147
1.021931 0.600725 -0.088694
1.056605 0.599107 -0.090222
1.091278 0.597490 -0.091750
0.293168 0.448781 0.217876
0.312449 0.453331 0.222073
0.331730 0.457881 0.226271
0.350513 0.462312 0.230359
0.369261 0.466734 0.234440
0.385467 0.473199 0.235058
0.401284 0.479979 0.235143
0.401155 0.504301 0.204688
0.397039 0.533009 0.166598
0.398830 0.560924 0.123077
0.402769 0.588551 0.077582
0.414864 0.612001 0.033624
0.431037 0.633362 -0.009564
0.455409 0.646091 -0.038280
0.485246 0.653064 -0.057346
0.517851 0.655448 -0.067080
0.552879 0.653815 -0.068650
0.587899 0.652201 -0.070240
0.622910 0.650607 -0.071851
0.658233 0.649032 -0.073557
0.694021 0.647486 -0.075403
0.730249 0.645979 -0.077349
0.767353 0.644550 -0.079494
0.804256 0.643091 -0.081564
0.840606 0.641552 -0.083430
0.876824 0.640005 -0.085263
0.912512 0.638434 -0.086966
0.948131 0.636859 -0.088654
0.983304 0.635259 -0.090249
1.018447 0.633658 -0.091840
1.053159 0.632044 -0.093366
1.087870 0.630429 -0.094891
0.303259 0.467638 0.225544
0.322543 0.472194 0.229744
0.341827 0.476750 0.233943
0.360614 0.481183 0.238033
0.379365 0.485607 0.242115
0.397831 0.489963 0.246134
0.416252 0.494309 0.250142
0.417168 0.517202 0.223631
0.413708 0.544732 0.189489
0.414273 0.572989 0.148156
0.416302 0.601510 0.104208
0.425520 0.626997 0.059637
0.438332 0.650967 0.014755
0.458900 0.668330 -0.021415
0.484637 0.681289 -0.051777
0.515106 0.686900 -0.067669
0.549715 0.686083 -0.070898
0.584438 0.684901 -0.073350
0.619289 0.683304 -0.074915
0.654187 0.681709 -0.076505
0.689157 0.680117 -0.078131
0.724791 0.678590 -0.079931
0.761752 0.677194 -0.082079
0.798630 0.675776 -0.084178
0.835278 0.674294 -0.086142
0.871809 0.672801 -0.088072
0.907871 0.671268 -0.089865
0.943848 0.669729 -0.091639
0.979280 0.668157 -0.093290
1.014675 0.666583 -0.094934
1.049551 0.664979 -0.096484
1.084427 0.663376 -0.098034
0.313347 0.486489 0.233210
0.332642 0.491062 0.237416
0.351937 0.495636 0.241623
0.370725 0.500068 0.245712
0.389477 0.504489 0.249793
0.407940 0.508842 0.253811
0.426359 0.513185 0.257819
0.429790 0.533339 0.236602
0.429475 0.557447 0.209078
0.430078 0.584901 0.171205
0.431015 0.613572 0.129568
0.438021 0.640343 0.085583
0.448061 0.666164 0.040423
0.464799 0.687671 -0.001202
0.486001 0.706302 -0.040472
0.513674 0.715865 -0.063174
0.547008 0.717493 -0.071377
0.581051 0.717606 -0.076481
0.615904 0.715988 -0.078045
0.650741 0.714371 -0.079616
0.685553 0.712758 -0.081198
0.720641 0.711193 -0.082862
0.756281 0.709721 -0.084690
0.792311 0.708275 -0.086595
0.829409 0.706900 -0.088712
0.866348 0.705503 -0.090778
0.902650 0.704015 -0.092639
0.938876 0.702523 -0.094482
0.974617 0.701008 -0.096206
1.010328 0.699489 -0.097924
1.045619 0.697913 -0.099551
1.080910 0.696337 -0.101179
0.323436 0.505343 0.240876
0.342741 0.509931 0.245089
0.362045 0.514520 0.249302
0.380833 0.518951 0.253390
0.399584 0.523370 0.257469
0.418047 0.527722 0.261488
0.436466 0.532063 0.265496
0.442722 0.549158 0.249842
0.445937 0.569443 0.229271
0.446553 0.596161 0.194586
0.446224 0.625220 0.154769
0.451104 0.653198 0.111420
0.458589 0.680636 0.066305
0.471938 0.705478 0.020898
0.489196 0.728589 -0.024704
0.513804 0.742397 -0.054475
0.544843 0.748065 -0.070395
0.577663 0.750326 -0.079614
0.612518 0.748691 -0.081176
0.647308 0.747060 -0.082734
0.682001 0.745437 -0.084285
0.716680 0.743842 -0.085848
0.751332 0.742303 -0.087434
0.786621 0.740820 -0.089169
0.823658 0.739491 -0.091310
0.860607 0.738143 -0.093413
0.897202 0.736719 -0.095360
0.933723 0.735289 -0.097287
0.969760 0.733825 -0.099083
1.005771 0.732356 -0.100872
1.041410 0.730810 -0.102568
1.077049 0.729264 -0.104263
0.333528 0.524206 0.248545
0.352837 0.528803 0.252762
0.372146 0.533400 0.256979
0.390931 0.537830 0.261067
0.409679 0.542249 0.265145
0.428149 0.546602 0.269165
0.446575 0.550945 0.273175
0.456504 0.564102 0.263821
0.464309 0.579462 0.251125
0.464869 0.605630 0.218883
0.462795 0.635728 0.179532
0.465787 0.664702 0.136959
0.471312 0.693113 0.092774
0.482485 0.719065 0.048191
0.497422 0.743377 0.003341
0.518228 0.762239 -0.034217
0.544170 0.776330 -0.065395
0.574271 0.783083 -0.082752
0.609126 0.781448 -0.084314
0.643911 0.779825 -0.085872
0.678591 0.778220 -0.087427
0.713238 0.776622 -0.088984
0.747819 0.775038 -0.090545
0.782663 0.773490 -0.092174
0.818232 0.772039 -0.093986
0.854094 0.770616 -0.095853
0.891133 0.769304 -0.097935
0.928074 0.767976 -0.099988
0.964371 0.766547 -0.101851
1.000636 0.765113 -0.103705
1.036438 0.763603 -0.105444
1.072240 0.762092 -0.107183
0.343620 0.543070 0.256213
0.362931 0.547668 0.260432
0.382241 0.552265 0.264650
0.401028 0.556702 0.268740
0.419777 0.561127 0.272821
0.438250 0.565482 0.276842
0.456681 0.569826 0.280852
0.470069 0.579279 0.277340
0.482195 0.590011 0.271947
0.482826 0.615526 0.242194
0.479277 0.646416 0.203582
0.480593 0.676191 0.161993
0.484341 0.705408 0.118915
0.493422 0.732419 0.075150
0.506057 0.757958 0.030926
0.523380 0.781114 -0.012808
0.544803 0.802185 -0.056112
0.572128 0.813379 -0.081280
0.606200 0.813288 -0.085723
0.640512 0.812595 -0.089011
0.675184 0.811000 -0.090568
0.709806 0.809398 -0.092120
0.744327 0.807778 -0.093662
0.778814 0.806175 -0.095205
0.813208 0.804621 -0.096754
0.848141 0.803126 -0.098418
0.885225 0.801866 -0.100545
0.922242 0.800591 -0.102646
0.958822 0.799220 -0.104583
0.995362 0.797842 -0.106510
1.031350 0.796373 -0.108297
1.067339 0.794904 -0.110084
0.353716 0.561935 0.263885
0.373015 0.566506 0.268092
0.392314 0.571076 0.272298
0.411117 0.575544 0.276402
0.429884 0.580005 0.280498
0.448353 0.584362 0.284518
0.466777 0.588704 0.288527
0.482764 0.595396 0.289022
0.498141 0.602676 0.288640
0.499350 0.627129 0.261564
0.495406 0.657828 0.224781
0.495890 0.687626 0.185011
0.498590 0.716973 0.143748
0.505918 0.744837 0.100778
0.516331 0.771710 0.056670
0.531441 0.796128 0.013205
0.550660 0.818396 -0.029697
0.574983 0.833830 -0.061373
0.605139 0.841454 -0.080220
0.637105 0.845384 -0.092150
0.671786 0.843772 -0.093707
0.706410 0.842157 -0.095258
0.740921 0.840538 -0.096800
0.775402 0.838927 -0.098342
0.809799 0.837341 -0.099886
0.844424 0.835783 -0.101483
0.879960 0.834338 -0.103292
0.915684 0.832922 -0.105131
0.952632 0.831695 -0.107174
0.989534 0.830456 -0.109204
1.025803 0.829053 -0.111059
