example/example.cube
# Converted by Briz LUT Converter
LUT_3D_SIZE 8
DOMAIN_MIN 0.000000 0.000000 0.000000
DOMAIN_MAX 0.903226 0.903226 0.903226
0.036732 0.024376 0.015563
0.193068 0.015757 0.007337
0.344832 0.008760 0.000785
0.493523 0.001894 -0.005632
0.640163 -0.004882 -0.011969
0.785188 -0.011579 -0.018234
0.928924 -0.018216 -0.024440
1.071604 -0.024809 -0.030606
0.132020 0.147633 0.095426
0.178861 0.150181 0.000016
0.328273 0.141728 -0.009794
0.479025 0.133598 -0.018011
0.625877 0.126740 -0.024475
0.770904 0.120028 -0.030736
0.914691 0.113402 -0.036948
1.057322 0.106811 -0.043114
0.172217 0.222759 0.125972
0.193469 0.267171 0.037328
0.311300 0.274360 -0.019561
0.458977 0.266845 -0.027809
0.605423 0.259736 -0.034983
0.752808 0.252550 -0.042318
0.899881 0.245483 -0.049405
1.043050 0.238835 -0.055656
0.212480 0.297997 0.156565
0.266880 0.330951 0.140797
0.300590 0.401932 -0.022259
0.441054 0.398589 -0.038194
0.588262 0.391642 -0.046455
0.731432 0.384997 -0.053013
0.875550 0.378233 -0.059865
1.020766 0.371474 -0.066823
0.252807 0.373357 0.187208
0.328900 0.391304 0.203769
0.333890 0.482896 0.063440
0.426288 0.528674 -0.047808
0.568400 0.522980 -0.056804
0.715271 0.516581 -0.064964
0.857819 0.510066 -0.071614
0.998839 0.503544 -0.077979
0.293168 0.448781 0.217876
0.369261 0.466734 0.234440
0.397039 0.533009 0.166598
0.431037 0.633362 -0.009564
0.552879 0.653815 -0.068650
0.694021 0.647486 -0.075403
0.840606 0.641552 -0.083430
0.983304 0.635259 -0.090249
0.333528 0.524206 0.248545
0.409679 0.542249 0.265145
0.464309 0.579462 0.251125
0.471312 0.693113 0.092774
0.544170 0.776330 -0.065395
0.678591 0.778220 -0.087427
0.818232 0.772039 -0.093986
0.964371 0.766547 -0.101851
0.373933 0.599712 0.279246
0.450066 0.617713 0.295832
0.523422 0.635057 0.311810
0.528728 0.738874 0.192644
0.564915 0.849498 0.021266
0.666299 0.906360 -0.094443
0.802976 0.902833 -0.106158
0.941512 0.896660 -0.112598
0.057131 0.048880 0.151732
0.195935 0.054341 0.124002
0.321009 0.034253 0.136559
0.483201 0.004807 0.123287
0.637545 -0.007321 0.113608
0.782576 -0.014024 0.107330
0.926380 -0.020666 0.101122
1.068974 -0.027251 0.094954
0.061810 0.163733 0.152767
0.179377 0.148711 0.124266
0.327871 0.138020 0.113939
0.476651 0.131053 0.107419
0.623260 0.124289 0.101089
0.768308 0.117592 0.094820
0.912063 0.110948 0.088600
1.054691 0.104369 0.082441
0.163706 0.235116 0.166450
0.252306 0.247617 0.180917
0.309508 0.271679 0.106504
0.458323 0.264004 0.097436
0.608122 0.256454 0.088897
0.753970 0.249630 0.082275
0.897659 0.242984 0.076055
1.040422 0.236383 0.069879
0.219802 0.304023 0.198495
0.295916 0.322021 0.215077
0.318599 0.383610 0.132668
0.439154 0.396168 0.088351
0.586303 0.389213 0.079673
0.731587 0.382377 0.072405
0.878227 0.375485 0.064876
1.024873 0.368704 0.057570
0.260126 0.379383 0.229134
0.336218 0.397334 0.245696
0.382156 0.440572 0.220855
0.427740 0.521802 0.086665
0.566495 0.520601 0.069919
0.713632 0.514198 0.061185
0.855875 0.507635 0.054553
0.999264 0.501094 0.047608
0.300491 0.454814 0.259805
0.376587 0.472767 0.276365
0.447979 0.491998 0.289461
0.456152 0.598038 0.158170
0.550891 0.650576 0.060109
0.692031 0.645143 0.051440
0.839022 0.639206 0.042805
0.981120 0.632866 0.035996
0.340903 0.530334 0.290508
0.417002 0.548273 0.307068
0.490319 0.565552 0.323016
0.515957 0.641695 0.254290
0.554777 0.751970 0.094363
0.676115 0.775889 0.039704
0.816092 0.769717 0.032942
0.962962 0.764262 0.024449
0.381251 0.605735 0.321164
0.457386 0.623736 0.337746
0.530751 0.641089 0.353728
0.579787 0.685982 0.333075
0.592455 0.806252 0.188891
0.667678 0.896398 0.043968
0.800500 0.900447 0.020965
0.939348 0.894394 0.014365
0.057093 0.048847 0.265174
0.188047 0.052468 0.243193
0.323295 0.063170 0.212389
0.441939 0.062697 0.224596
0.568379 0.041319 0.245138
0.726806 0.010602 0.247156
0.892592 -0.009615 0.237646
1.058608 -0.026686 0.226959
0.056919 0.164622 0.264999
0.180731 0.164571 0.264676
0.333038 0.168215 0.222461
0.448525 0.151629 0.244674
0.610706 0.126852 0.234960
0.764308 0.115625 0.225663
0.909258 0.108444 0.219128
1.052073 0.101817 0.212942
0.062355 0.278532 0.263995
0.189759 0.276962 0.264323
0.314442 0.270261 0.236064
0.459377 0.260688 0.225594
0.606215 0.253775 0.219040
0.751299 0.247074 0.212772
0.894961 0.240442 0.206560
1.037692 0.233839 0.200374
0.146466 0.350745 0.254932
0.293677 0.333266 0.260326
0.369782 0.350085 0.268562
0.437711 0.393554 0.219268
0.586216 0.386469 0.209622
0.735367 0.379418 0.200853
0.880532 0.372656 0.194021
1.023295 0.366110 0.187808
0.228764 0.408928 0.272386
0.343503 0.403802 0.289281
0.416935 0.421122 0.305002
0.444297 0.498588 0.238835
0.564737 0.518131 0.201398
0.711867 0.511689 0.192206
0.856377 0.505087 0.184790
1.002742 0.498516 0.177006
0.304292 0.463550 0.303012
0.384198 0.479028 0.319943
0.457531 0.496328 0.335904
0.501910 0.547034 0.312461
0.552757 0.641393 0.200297
0.690141 0.642719 0.183148
0.837510 0.636780 0.173894
0.979206 0.630377 0.167109
0.348513 0.536600 0.334088
0.424612 0.554537 0.350647
0.497926 0.571814 0.366591
0.565628 0.593673 0.376484
0.579246 0.710471 0.262304
0.674151 0.772025 0.173830
0.814016 0.767290 0.164821
0.961527 0.761874 0.155638
0.388860 0.611997 0.364740
0.465030 0.630060 0.381348
0.538355 0.647351 0.397304
0.610160 0.664327 0.412876
0.636737 0.747321 0.350139
0.678023 0.868799 0.205781
0.797924 0.898011 0.153134
0.937084 0.891952 0.146360
0.057060 0.048818 0.381022
0.180725 0.048737 0.380964
0.322160 0.062988 0.310527
0.447425 0.070195 0.303028
0.566415 0.074321 0.309438
0.678661 0.069306 0.329567
0.803536 0.048889 0.352980
0.960008 0.019280 0.362344
0.056883 0.164596 0.380894
0.180539 0.164501 0.380779
0.317177 0.168572 0.347741
0.459078 0.178125 0.311610
0.572956 0.177284 0.327184
0.691847 0.158893 0.354144
0.848251 0.131213 0.360594
1.013734 0.112358 0.352557
0.056701 0.280721 0.380717
0.180377 0.280633 0.380615
0.300480 0.280646 0.379391
0.466972 0.283315 0.324432
0.574971 0.271020 0.353945
0.734426 0.250014 0.349974
0.889371 0.238846 0.340550
1.034711 0.231319 0.333753
0.060143 0.395249 0.379291
0.188763 0.392486 0.377604
0.313307 0.388618 0.375390
0.444223 0.389512 0.348315
0.588418 0.383612 0.340240
0.734156 0.376712 0.333509
0.877888 0.370079 0.327287
1.020506 0.363515 0.321103
0.121452 0.476657 0.364554
0.273563 0.456263 0.358087
0.413507 0.434546 0.354240
0.488223 0.453970 0.360574
0.563604 0.515632 0.335056
0.712561 0.509073 0.324625
0.861089 0.502477 0.315708
1.006003 0.495910 0.308611
0.219395 0.527508 0.361490
0.356187 0.509438 0.368720
0.464664 0.503182 0.380522
0.536698 0.520214 0.395658
0.569552 0.611307 0.349378
0.688551 0.640247 0.317425
0.836001 0.634286 0.307652
0.980011 0.627926 0.300057
0.296011 0.583593 0.380363
0.428507 0.563681 0.395192
0.505702 0.578213 0.411108
0.577546 0.595144 0.426745
0.623113 0.650842 0.409247
0.676392 0.760236 0.316763
0.812172 0.764857 0.299397
0.960161 0.759438 0.289519
0.373268 0.635103 0.407997
0.472807 0.636470 0.425878
0.546133 0.653752 0.441832
0.617983 0.670692 0.457454
0.684194 0.693946 0.466744
0.702414 0.820244 0.371199
0.796206 0.893114 0.290742
0.934878 0.889529 0.281121
0.057023 0.048786 0.498669
0.180681 0.048703 0.498573
0.305413 0.052295 0.477127
0.448246 0.071098 0.396130
0.569915 0.077182 0.394929
0.688777 0.082152 0.399221
0.803804 0.084789 0.408379
0.910423 0.076210 0.435497
0.056846 0.164562 0.498508
0.180513 0.164482 0.498418
0.299805 0.164430 0.498013
0.454064 0.177693 0.416284
0.581561 0.185113 0.403499
0.698462 0.189153 0.410580
0.806644 0.185177 0.432720
0.924086 0.166823 0.462239
0.056672 0.280687 0.498333
0.180332 0.280611 0.498258
0.299535 0.280534 0.498166
0.443012 0.284403 0.457073
0.593252 0.293385 0.412097
0.702875 0.292973 0.430509
0.814294 0.277404 0.463779
0.967468 0.252836 0.475416
0.056490 0.397054 0.498170
0.180176 0.396935 0.498074
0.299359 0.396855 0.498003
0.418619 0.396919 0.495080
0.597344 0.399309 0.429949
0.702041 0.390850 0.462592
0.855059 0.373429 0.466991
1.012869 0.362230 0.457513
0.056312 0.513474 0.498008
0.184609 0.510754 0.495720
0.309854 0.506445 0.492261
0.434095 0.499228 0.485845
0.570792 0.507732 0.460955
0.715350 0.506668 0.457103
0.860758 0.499844 0.450019
1.003464 0.493278 0.443842
0.102662 0.602355 0.482143
0.246285 0.587420 0.474817
0.393373 0.563603 0.462573
0.529977 0.537575 0.450103
0.607733 0.557156 0.455097
0.687823 0.637461 0.453059
0.837661 0.631867 0.441670
0.985583 0.625640 0.432646
0.199991 0.654117 0.465205
0.344520 0.632819 0.463349
0.477539 0.611401 0.465226
0.584311 0.602514 0.472259
0.655824 0.619036 0.487061
0.694335 0.720659 0.461572
0.810694 0.762423 0.435650
0.958919 0.756970 0.425158
0.285976 0.705775 0.470321
0.422994 0.684809 0.477901
0.548733 0.664293 0.487606
0.625879 0.677203 0.502651
0.696707 0.693899 0.518059
0.744846 0.751853 0.508397
0.798891 0.877901 0.435018
0.932909 0.887034 0.417790
0.056994 0.048758 0.617628
0.180647 0.048674 0.617584
0.299835 0.048593 0.617499
0.434807 0.061695 0.548022
0.571548 0.078648 0.485961
0.691099 0.084133 0.487778
0.808953 0.089059 0.492030
0.925588 0.093722 0.496805
0.056814 0.164524 0.617503
0.180475 0.164454 0.617410
0.299649 0.164362 0.617302
0.426035 0.167996 0.591726
0.580762 0.185800 0.500125
0.702784 0.192070 0.496361
0.820535 0.196989 0.500608
0.933586 0.199667 0.510750
0.056635 0.280660 0.617307
0.180314 0.280582 0.617230
0.299493 0.280496 0.617141
0.416677 0.280508 0.616250
0.582264 0.292495 0.525910
0.714469 0.300337 0.504952
0.829840 0.304474 0.512184
0.934262 0.301686 0.536062
0.056456 0.397008 0.617141
0.180158 0.396891 0.617089
0.299335 0.396815 0.616995
0.416122 0.396759 0.616902
0.565159 0.400145 0.570520
0.726155 0.408775 0.513548
0.832275 0.409278 0.533847
0.936714 0.396334 0.573264
0.056275 0.513437 0.617001
0.179971 0.513380 0.616905
0.299162 0.513291 0.616816
0.415967 0.513217 0.616720
0.535430 0.513250 0.611886
0.724614 0.515787 0.538122
0.830461 0.510677 0.570019
0.973815 0.496662 0.584959
0.056093 0.630027 0.616819
0.179797 0.629943 0.616725
0.303580 0.626824 0.613807
0.427456 0.620989 0.608369
0.552195 0.609893 0.596924
0.695945 0.625669 0.574177
0.839981 0.629792 0.575887
0.986197 0.623144 0.568119
0.080026 0.731818 0.607344
0.226314 0.715993 0.596772
0.364347 0.699923 0.587110
0.508649 0.673067 0.569300
0.643233 0.643246 0.549145
0.728002 0.657410 0.549825
0.810759 0.757437 0.572252
0.961693 0.754769 0.560310
0.177932 0.783637 0.578800
0.324145 0.762803 0.572168
0.463742 0.739591 0.566201
0.595783 0.714483 0.562573
0.702763 0.702135 0.564614
0.774712 0.717112 0.579002
0.817990 0.827055 0.573081
0.931387 0.884580 0.555730
0.056959 0.048727 0.737753
0.180609 0.048639 0.737641
0.299792 0.048560 0.737567
0.420363 0.051264 0.721228
0.562929 0.072295 0.619104
0.693455 0.086132 0.577185
0.811285 0.091060 0.581416
0.928187 0.095944 0.585613
0.056778 0.164488 0.737574
0.180448 0.164405 0.737502
0.299617 0.164328 0.737457
0.416477 0.164283 0.737093
0.558179 0.176445 0.662752
0.703650 0.193352 0.589718
0.822867 0.198993 0.589929
0.939875 0.203878 0.594183
0.056600 0.280619 0.737465
0.180284 0.280553 0.737348
0.299466 0.280461 0.737234
0.416252 0.280378 0.737122
0.544072 0.283707 0.709781
0.711483 0.300774 0.605646
0.834620 0.307260 0.598591
0.951524 0.312153 0.602825
0.056419 0.396963 0.737238
0.180113 0.396870 0.737126
0.299300 0.396823 0.736990
0.416088 0.396715 0.736943
0.531961 0.396729 0.735606
0.706703 0.407361 0.639221
0.846366 0.415718 0.607199
0.961124 0.420032 0.613956
0.056240 0.513432 0.736993
0.179935 0.513349 0.736941
0.299136 0.513258 0.736928
0.415942 0.513189 0.736852
0.531048 0.513093 0.736737
0.684131 0.515953 0.687098
0.858040 0.524293 0.615785
0.961559 0.525853 0.636805
0.056061 0.629995 0.736936
0.179778 0.629911 0.736860
0.298974 0.629855 0.736741
0.415734 0.629790 0.736623
0.530897 0.629685 0.736530
0.650508 0.629674 0.730413
0.848805 0.632369 0.648198
0.960017 0.630306 0.676284
0.055882 0.746702 0.736744
0.179601 0.746581 0.736627
0.298809 0.746460 0.736535
0.419227 0.743715 0.733709
0.542311 0.736466 0.726279
0.667404 0.721988 0.710409
0.815600 0.743127 0.692168
0.962252 0.752733 0.695695
0.068797 0.855124 0.730923
0.203369 0.847302 0.725370
0.343867 0.830978 0.713142
0.479360 0.813466 0.700862
0.620567 0.784848 0.678856
0.755186 0.750449 0.651056
0.847637 0.756248 0.644494
0.931911 0.876737 0.692052
0.056925 0.048695 0.858807
0.180591 0.048613 0.858678
0.299759 0.048527 0.858665
0.416529 0.048446 0.858535
0.545578 0.059095 0.799569
0.687870 0.081877 0.698540
0.813637 0.093075 0.671511
0.930537 0.097959 0.675702
0.056745 0.164475 0.858662
0.180405 0.164372 0.858540
0.299604 0.164297 0.858413
0.416393 0.164217 0.858321
0.536754 0.166682 0.841589
0.688564 0.186420 0.732790
0.825156 0.200975 0.680278
0.942226 0.205895 0.684294
0.056563 0.280595 0.858417
0.180248 0.280522 0.858330
0.299432 0.280430 0.858267
0.416212 0.280352 0.858156
0.531504 0.280323 0.857713
0.678438 0.291235 0.781434
0.834186 0.308287 0.694958
0.953872 0.314162 0.692824
0.056384 0.396918 0.858276
0.180074 0.396842 0.858161
0.299269 0.396783 0.858125
0.416049 0.396672 0.858020
0.531203 0.396561 0.857892
0.659245 0.399393 0.831293
0.839840 0.415763 0.713767
0.965670 0.422582 0.701492
0.056206 0.513397 0.858123
0.179903 0.513313 0.858024
0.299112 0.513223 0.857897
0.415897 0.513159 0.857767
0.531014 0.513054 0.857721
0.645837 0.513082 0.856261
0.827152 0.522321 0.756522
0.977396 0.531203 0.710137
0.056024 0.629963 0.857902
0.179740 0.629884 0.857772
0.298941 0.629837 0.857719
0.415690 0.629758 0.857689
0.530874 0.629651 0.857620
0.644765 0.629561 0.857533
0.798634 0.631818 0.808137
0.989062 0.639870 0.718709
0.055848 0.746656 0.857716
0.179569 0.746535 0.857696
0.298773 0.746414 0.857629
0.415582 0.746382 0.857537
0.530718 0.746340 0.857421
0.644610 0.746253 0.857294
0.762843 0.746156 0.851624
0.972207 0.748660 0.758313
0.055667 0.863422 0.857640
0.179400 0.863300 0.857541
0.298603 0.863230 0.857426
0.415403 0.863113 0.857299
0.532539 0.861361 0.855429
0.654773 0.853245 0.846508
0.779423 0.836920 0.828156
0.935194 0.858895 0.808075
